X: 32904
T: Potato Anxiety
R: reel
M: 4/4
K: Dmajor
|f3 e dAAG|FAde fdef|g2 gf gfed|cedB A2 fe|
d2 fe dAGA|FAde fdef|gfed cdec|d2 d6:|
|:e2 ed cdeg|fA ~A2 fA ~A2|e2 ed cdeg|fdec d2 d2|
e2 ed cdeg|fA ~A2 fA ~A2|e2 ed cdec|d2 d6:|

